package/converter/svg/thin/rectangle.svg

<svg xmlns="http://www.w3.org/2000/svg" viewBox="0 0 512 512"><!-- Font Awesome Pro 6.0.0-alpha2 by @fontawesome - https://fontawesome.com License - https://fontawesome.com/license (Commercial License) --><path d="M448 80C474.467 80 496 101.533 496 128V384C496 410.467 474.467 432 448 432H64C37.533 432 16 410.467 16 384V128C16 101.533 37.533 80 64 80H448M448 64H64C28.654 64 0 92.654 0 128V384C0 419.346 28.654 448 64 448H448C483.346 448 512 419.346 512 384V128C512 92.654 483.346 64 448 64L448 64Z"/></svg>

<svg xmlns="http://www.w3.org/2000/svg" viewBox="0 0 512 512"><!--! Font Awesome Pro 6.6.0 by @fontawesome - https://fontawesome.com License - https://fontawesome.com/license (Commercial License) Copyright 2024 Fonticons, Inc. --><path d="M448 80c26.5 0 48 21.5 48 48l0 256c0 26.5-21.5 48-48 48L64 432c-26.5 0-48-21.5-48-48l0-256c0-26.5 21.5-48 48-48l384 0zM64 64C28.7 64 0 92.7 0 128L0 384c0 35.3 28.7 64 64 64l384 0c35.3 0 64-28.7 64-64l0-256c0-35.3-28.7-64-64-64L64 64z"/></svg>
